_src/design/images/logo/logo.svg

<svg width="134" height="56" viewBox="0 0 134 56" fill="none" xmlns="http://www.w3.org/2000/svg">
<path d="M20.688 40.128H7.2L4.704 48H0.864L12.24 14.4H15.648L27.024 48H23.184L20.688 40.128ZM19.776 37.2L13.968 18.72L8.112 37.2H19.776Z" fill="#8372E8"/>
<path d="M32.968 28.26C31.044 28.26 29.5447 27.6707 28.47 26.492C27.4127 25.296 26.884 23.632 26.884 21.5C26.884 19.368 27.4127 17.7127 28.47 16.534C29.5447 15.338 31.044 14.74 32.968 14.74C34.06 14.74 35.022 14.9567 35.854 15.39C36.7033 15.806 37.3707 16.4127 37.856 17.21L36.53 18.406C36.1487 17.8167 35.646 17.3573 35.022 17.028C34.4153 16.6813 33.7567 16.508 33.046 16.508C31.8153 16.508 30.8447 16.95 30.134 17.834C29.4407 18.7007 29.094 19.9227 29.094 21.5C29.094 23.06 29.4407 24.282 30.134 25.166C30.8447 26.05 31.8153 26.492 33.046 26.492C33.7567 26.492 34.4153 26.3273 35.022 25.998C35.646 25.6513 36.1487 25.1833 36.53 24.594L37.856 25.79C37.3707 26.5873 36.7033 27.2027 35.854 27.636C35.022 28.052 34.06 28.26 32.968 28.26ZM44.5811 28.26C43.4371 28.26 42.5357 27.896 41.8771 27.168C41.2184 26.4227 40.8891 25.4 40.8891 24.1V16.716H38.5491V15H40.8891V11.542L42.9951 10.892H43.0991V15H46.7911V16.716H43.0991V23.892C43.0991 24.776 43.2637 25.4347 43.5931 25.868C43.9224 26.284 44.4337 26.492 45.1271 26.492C45.8724 26.492 46.4791 26.3967 46.9471 26.206L47.1031 27.844C46.5311 28.1213 45.6904 28.26 44.5811 28.26ZM54.2258 28.26C52.7352 28.26 51.5998 27.7747 50.8198 26.804C50.0572 25.8333 49.6758 24.4033 49.6758 22.514V15H51.8858V22.54C51.8858 25.1747 52.8218 26.492 54.6938 26.492C55.4218 26.492 56.0805 26.31 56.6698 25.946C57.2592 25.5647 57.7185 25.0447 58.0478 24.386C58.3772 23.71 58.5418 22.956 58.5418 22.124V15H60.7518V25.244C60.7518 26.1107 60.8298 27.0293 60.9858 28H58.9578C58.8018 27.2373 58.7152 26.466 58.6978 25.686H58.6198C58.2385 26.4833 57.6492 27.116 56.8518 27.584C56.0718 28.0347 55.1965 28.26 54.2258 28.26ZM67.8435 28.26C66.5609 28.26 65.5122 27.8873 64.6975 27.142C63.8829 26.3967 63.4755 25.4347 63.4755 24.256C63.4755 22.956 63.9609 21.9507 64.9315 21.24C65.9195 20.5293 67.3149 20.174 69.1175 20.174H71.7955V19.498C71.7955 18.5273 71.5355 17.7907 71.0155 17.288C70.5129 16.768 69.7762 16.508 68.8055 16.508C68.0255 16.508 67.3062 16.6727 66.6475 17.002C66.0062 17.314 65.4689 17.7733 65.0355 18.38L63.9175 17.028C64.5069 16.2827 65.2262 15.7193 66.0755 15.338C66.9249 14.9393 67.8695 14.74 68.9095 14.74C70.5389 14.74 71.7955 15.1387 72.6795 15.936C73.5635 16.7333 74.0055 17.8773 74.0055 19.368V25.478C74.0055 26.154 74.1095 26.9947 74.3175 28H72.3935C72.2375 27.6013 72.1249 26.9947 72.0555 26.18H72.0035C71.5182 26.856 70.9202 27.376 70.2095 27.74C69.4989 28.0867 68.7102 28.26 67.8435 28.26ZM68.1815 26.518C68.8402 26.518 69.4469 26.3967 70.0015 26.154C70.5562 25.894 70.9895 25.5473 71.3015 25.114C71.6309 24.6807 71.7955 24.204 71.7955 23.684V21.76H69.0395C67.9475 21.76 67.1069 21.9767 66.5175 22.41C65.9282 22.8433 65.6335 23.4587 65.6335 24.256C65.6335 24.9493 65.8589 25.504 66.3095 25.92C66.7775 26.3187 67.4015 26.518 68.1815 26.518ZM80.419 28.26C78.547 28.26 77.611 27.1593 77.611 24.958V8.708H79.821V24.932C79.821 25.5387 79.9163 25.972 80.107 26.232C80.315 26.4747 80.6617 26.596 81.147 26.596C81.5283 26.596 81.9617 26.492 82.447 26.284L82.785 27.61C82.1263 28.0433 81.3377 28.26 80.419 28.26Z" fill="#39929E"/>
<path d="M31.56 38.276C31.56 36.6293 31.5253 35.5373 31.456 35H33.51C33.5793 35.572 33.614 36.3433 33.614 37.314H33.692C34.0733 36.5167 34.654 35.8927 35.434 35.442C36.2313 34.974 37.1153 34.74 38.086 34.74C39.6113 34.74 40.7553 35.234 41.518 36.222C42.2807 37.21 42.662 38.6833 42.662 40.642V48H40.452V40.616C40.452 39.2293 40.218 38.198 39.75 37.522C39.282 36.846 38.5713 36.508 37.618 36.508C36.89 36.508 36.2313 36.6987 35.642 37.08C35.0527 37.444 34.5933 37.964 34.264 38.64C33.9347 39.2987 33.77 40.044 33.77 40.876V48H31.56V38.276ZM49.4695 48.26C48.4989 48.26 47.6149 48.0607 46.8175 47.662C46.0375 47.2633 45.4829 46.7347 45.1535 46.076L46.5835 45.088C46.8782 45.556 47.2855 45.92 47.8055 46.18C48.3255 46.44 48.8889 46.57 49.4955 46.57C50.2235 46.57 50.8215 46.362 51.2895 45.946C51.7749 45.5127 52.0175 44.9753 52.0175 44.334C52.0175 43.814 51.8269 43.3807 51.4455 43.034C51.0642 42.6873 50.3882 42.332 49.4175 41.968C47.9442 41.4307 46.9042 40.8673 46.2975 40.278C45.7082 39.6887 45.4135 38.9607 45.4135 38.094C45.4135 37.0887 45.8122 36.2827 46.6095 35.676C47.4069 35.052 48.4642 34.74 49.7815 34.74C50.6309 34.74 51.4022 34.922 52.0955 35.286C52.8062 35.65 53.3522 36.1527 53.7335 36.794L52.3815 37.782C51.7749 36.8807 50.9082 36.43 49.7815 36.43C49.1402 36.43 48.6115 36.5773 48.1955 36.872C47.7969 37.1667 47.5975 37.548 47.5975 38.016C47.5975 38.484 47.8055 38.8827 48.2215 39.212C48.6375 39.524 49.4089 39.8967 50.5355 40.33C51.8702 40.8327 52.8149 41.3873 53.3695 41.994C53.9242 42.5833 54.2015 43.3373 54.2015 44.256C54.2015 45.4693 53.7682 46.44 52.9015 47.168C52.0349 47.896 50.8909 48.26 49.4695 48.26ZM72.1679 35L68.9179 48H66.9159L63.7699 37.366L60.6239 48H58.6219L55.3719 35H57.6859L59.7919 44.984L62.7559 35H64.7839L67.7479 44.984L69.8539 35H72.1679ZM84.9851 42.358H75.6251C75.7465 43.6753 76.1365 44.6807 76.7951 45.374C77.4538 46.05 78.3638 46.388 79.5251 46.388C81.0851 46.388 82.3245 45.7727 83.2431 44.542L84.4911 45.738C83.9885 46.5353 83.2865 47.1593 82.3851 47.61C81.5011 48.0433 80.5218 48.26 79.4471 48.26C77.5231 48.26 76.0325 47.6707 74.9751 46.492C73.9178 45.3133 73.3891 43.658 73.3891 41.526C73.3891 39.4113 73.9178 37.756 74.9751 36.56C76.0498 35.3467 77.5231 34.74 79.3951 34.74C81.1458 34.74 82.5151 35.338 83.5031 36.534C84.4911 37.7127 84.9851 39.368 84.9851 41.5V42.358ZM82.9571 40.538C82.9571 39.29 82.6278 38.3107 81.9691 37.6C81.3278 36.8893 80.4351 36.534 79.2911 36.534C78.2165 36.534 77.3585 36.898 76.7171 37.626C76.0931 38.354 75.7291 39.3853 75.6251 40.72H82.9571V40.538ZM87.6522 38.172C87.6522 36.6987 87.6262 35.6413 87.5742 35H89.6282C89.6975 35.6933 89.7322 36.456 89.7322 37.288V37.548H89.8102C90.1395 36.6467 90.6682 35.9533 91.3962 35.468C92.1242 34.9827 92.9822 34.74 93.9702 34.74C94.2475 34.74 94.4988 34.766 94.7242 34.818V36.638C94.4988 36.586 94.1955 36.56 93.8142 36.56C93.0862 36.56 92.4188 36.7853 91.8122 37.236C91.2055 37.6693 90.7288 38.2673 90.3822 39.03C90.0355 39.7927 89.8622 40.6247 89.8622 41.526V48H87.6522V38.172ZM100.2 48.26C99.2293 48.26 98.3453 48.0607 97.548 47.662C96.768 47.2633 96.2133 46.7347 95.884 46.076L97.314 45.088C97.6087 45.556 98.016 45.92 98.536 46.18C99.056 46.44 99.6193 46.57 100.226 46.57C100.954 46.57 101.552 46.362 102.02 45.946C102.505 45.5127 102.748 44.9753 102.748 44.334C102.748 43.814 102.557 43.3807 102.176 43.034C101.795 42.6873 101.119 42.332 100.148 41.968C98.6747 41.4307 97.6347 40.8673 97.028 40.278C96.4387 39.6887 96.144 38.9607 96.144 38.094C96.144 37.0887 96.5427 36.2827 97.34 35.676C98.1373 35.052 99.1947 34.74 100.512 34.74C101.361 34.74 102.133 34.922 102.826 35.286C103.537 35.65 104.083 36.1527 104.464 36.794L103.112 37.782C102.505 36.8807 101.639 36.43 100.512 36.43C99.8707 36.43 99.342 36.5773 98.926 36.872C98.5273 37.1667 98.328 37.548 98.328 38.016C98.328 38.484 98.536 38.8827 98.952 39.212C99.368 39.524 100.139 39.8967 101.266 40.33C102.601 40.8327 103.545 41.3873 104.1 41.994C104.655 42.5833 104.932 43.3373 104.932 44.256C104.932 45.4693 104.499 46.44 103.632 47.168C102.765 47.896 101.621 48.26 100.2 48.26Z" fill="#39929E"/>
<rect x="88.5" y="15.5" width="11" height="11" rx="0.5" fill="#EFEFEF" stroke="#C4C4C4"/>
<rect x="115.5" y="15.5" width="11" height="11" rx="0.5" fill="#EFEFEF" stroke="#C4C4C4"/>
<rect x="101.5" y="15.5" width="11" height="11" rx="0.5" fill="#EFEFEF" stroke="#8372E8"/>
<path d="M133.609 43.0338L127.973 36.9933C127.731 36.7336 127.389 36.5906 127.034 36.6007L121.635 36.7522L128.275 43.8689L133.319 43.7273C133.674 43.7174 133.851 43.2935 133.609 43.0338Z" fill="#8372E8"/>
<path d="M127.073 49.132L121.437 43.0915C121.195 42.8318 121.076 42.4807 121.111 42.1274L121.635 36.7522L128.275 43.8689L127.785 48.8907C127.751 49.2441 127.315 49.3915 127.073 49.132Z" fill="#8372E8"/>
<path d="M107.97 20.6216L107.788 20.7919L107.97 20.6216C107.589 20.2126 106.948 20.1904 106.539 20.572L106.539 20.572C106.334 20.7628 106.226 21.0189 106.217 21.2775C106.209 21.536 106.298 21.799 106.489 22.0035L131.066 48.3445C131.448 48.7535 132.089 48.7757 132.498 48.3941L132.498 48.3941C132.907 48.0125 132.929 47.3717 132.547 46.9627L132.547 46.9626L107.97 20.6216Z" fill="#BFBFBF" stroke="#BFBFBF" stroke-width="0.5"/>
</svg>

<svg width="134" height="56" fill="none" xmlns="http://www.w3.org/2000/svg"><path d="M20.688 40.128H7.2L4.704 48H.864L12.24 14.4h3.408L27.024 48h-3.84l-2.496-7.872zm-.912-2.928l-5.808-18.48L8.112 37.2h11.664z" fill="#8372E8"/><path d="M32.968 28.26c-1.924 0-3.423-.59-4.498-1.768-1.057-1.196-1.586-2.86-1.586-4.992s.529-3.787 1.586-4.966c1.075-1.196 2.574-1.794 4.498-1.794 1.092 0 2.054.217 2.886.65a4.73 4.73 0 012.002 1.82l-1.326 1.196a3.978 3.978 0 00-1.508-1.378 3.915 3.915 0 00-1.976-.52c-1.23 0-2.201.442-2.912 1.326-.693.867-1.04 2.089-1.04 3.666 0 1.56.347 2.782 1.04 3.666.71.884 1.681 1.326 2.912 1.326.71 0 1.37-.165 1.976-.494a4.19 4.19 0 001.508-1.404l1.326 1.196a4.902 4.902 0 01-2.002 1.846c-.832.416-1.794.624-2.886.624zm11.613 0c-1.144 0-2.045-.364-2.704-1.092-.659-.745-.988-1.768-.988-3.068v-7.384h-2.34V15h2.34v-3.458l2.106-.65h.104V15h3.692v1.716H43.1v7.176c0 .884.165 1.543.494 1.976.33.416.84.624 1.534.624.745 0 1.352-.095 1.82-.286l.156 1.638c-.572.277-1.413.416-2.522.416zm9.645 0c-1.49 0-2.626-.485-3.406-1.456-.763-.97-1.144-2.4-1.144-4.29V15h2.21v7.54c0 2.635.936 3.952 2.808 3.952.728 0 1.386-.182 1.976-.546a3.885 3.885 0 001.378-1.56c.33-.676.494-1.43.494-2.262V15h2.21v10.244c0 .867.078 1.785.234 2.756h-2.028a12.967 12.967 0 01-.26-2.314h-.078c-.381.797-.97 1.43-1.768 1.898-.78.45-1.655.676-2.626.676zm13.618 0c-1.283 0-2.332-.373-3.146-1.118-.815-.745-1.222-1.707-1.222-2.886 0-1.3.485-2.305 1.456-3.016.987-.71 2.383-1.066 4.186-1.066h2.678v-.676c0-.97-.26-1.707-.78-2.21-.503-.52-1.24-.78-2.21-.78-.78 0-1.5.165-2.159.494a4.242 4.242 0 00-1.612 1.378l-1.117-1.352a5.688 5.688 0 012.158-1.69c.849-.399 1.794-.598 2.834-.598 1.629 0 2.886.399 3.77 1.196.883.797 1.325 1.941 1.325 3.432v6.11c0 .676.105 1.517.313 2.522h-1.924c-.157-.399-.27-1.005-.339-1.82h-.052a4.986 4.986 0 01-1.793 1.56c-.711.347-1.5.52-2.366.52zm.338-1.742a4.49 4.49 0 001.82-.364c.554-.26.988-.607 1.3-1.04a2.31 2.31 0 00.493-1.43V21.76H69.04c-1.093 0-1.933.217-2.523.65-.589.433-.883 1.049-.883 1.846 0 .693.225 1.248.675 1.664.469.399 1.093.598 1.873.598zm12.237 1.742c-1.872 0-2.808-1.1-2.808-3.302V8.708h2.21v16.224c0 .607.095 1.04.286 1.3.208.243.555.364 1.04.364.381 0 .815-.104 1.3-.312l.338 1.326c-.659.433-1.447.65-2.366.65zM31.56 38.276c0-1.647-.035-2.739-.104-3.276h2.054c.07.572.104 1.343.104 2.314h.078a4.227 4.227 0 011.742-1.872 5.142 5.142 0 012.652-.702c1.525 0 2.67.494 3.432 1.482.763.988 1.144 2.461 1.144 4.42V48h-2.21v-7.384c0-1.387-.234-2.418-.702-3.094-.468-.676-1.179-1.014-2.132-1.014a3.56 3.56 0 00-1.976.572c-.59.364-1.049.884-1.378 1.56-.33.659-.494 1.404-.494 2.236V48h-2.21v-9.724zm17.91 9.984c-.971 0-1.855-.2-2.652-.598-.78-.399-1.335-.927-1.664-1.586l1.43-.988a2.99 2.99 0 001.221 1.092c.52.26 1.084.39 1.69.39.729 0 1.327-.208 1.794-.624a2.07 2.07 0 00.728-1.612c0-.52-.19-.953-.572-1.3-.38-.347-1.057-.702-2.028-1.066-1.473-.537-2.513-1.1-3.12-1.69-.589-.59-.883-1.317-.883-2.184 0-1.005.398-1.811 1.195-2.418.798-.624 1.855-.936 3.172-.936.85 0 1.621.182 2.315.546.71.364 1.256.867 1.638 1.508l-1.352.988c-.607-.901-1.474-1.352-2.6-1.352-.642 0-1.17.147-1.586.442-.4.295-.599.676-.599 1.144 0 .468.209.867.624 1.196.417.312 1.188.685 2.315 1.118 1.334.503 2.279 1.057 2.834 1.664.554.59.832 1.343.832 2.262 0 1.213-.434 2.184-1.3 2.912-.867.728-2.011 1.092-3.433 1.092zM72.167 35l-3.25 13h-2.002L63.77 37.366 60.624 48h-2.002l-3.25-13h2.314l2.106 9.984L62.756 35h2.028l2.964 9.984L69.854 35h2.314zm12.817 7.358h-9.36c.121 1.317.511 2.323 1.17 3.016.659.676 1.569 1.014 2.73 1.014 1.56 0 2.8-.615 3.718-1.846l1.248 1.196c-.502.797-1.204 1.421-2.106 1.872-.884.433-1.863.65-2.938.65-1.924 0-3.415-.59-4.472-1.768-1.057-1.179-1.586-2.834-1.586-4.966 0-2.115.529-3.77 1.586-4.966 1.075-1.213 2.548-1.82 4.42-1.82 1.75 0 3.12.598 4.108 1.794.988 1.179 1.482 2.834 1.482 4.966v.858zm-2.028-1.82c0-1.248-.33-2.227-.988-2.938-.641-.71-1.534-1.066-2.678-1.066-1.075 0-1.932.364-2.574 1.092-.624.728-.988 1.76-1.092 3.094h7.332v-.182zm4.695-2.366c0-1.473-.026-2.53-.078-3.172h2.054c.07.693.104 1.456.104 2.288v.26h.078c.33-.901.858-1.595 1.586-2.08.728-.485 1.586-.728 2.574-.728.278 0 .529.026.754.078v1.82a4.217 4.217 0 00-.91-.078 3.28 3.28 0 00-2.002.676c-.606.433-1.083 1.031-1.43 1.794a5.96 5.96 0 00-.52 2.496V48h-2.21v-9.828zM100.2 48.26c-.97 0-1.855-.2-2.652-.598-.78-.399-1.335-.927-1.664-1.586l1.43-.988a2.99 2.99 0 001.222 1.092c.52.26 1.083.39 1.69.39.728 0 1.326-.208 1.794-.624.485-.433.728-.97.728-1.612 0-.52-.191-.953-.572-1.3-.381-.347-1.057-.702-2.028-1.066-1.473-.537-2.513-1.1-3.12-1.69-.59-.59-.884-1.317-.884-2.184 0-1.005.399-1.811 1.196-2.418.797-.624 1.855-.936 3.172-.936.849 0 1.621.182 2.314.546.711.364 1.257.867 1.638 1.508l-1.352.988c-.607-.901-1.473-1.352-2.6-1.352-.641 0-1.17.147-1.586.442-.399.295-.598.676-.598 1.144 0 .468.208.867.624 1.196.416.312 1.187.685 2.314 1.118 1.335.503 2.279 1.057 2.834 1.664.555.59.832 1.343.832 2.262 0 1.213-.433 2.184-1.3 2.912-.867.728-2.011 1.092-3.432 1.092z" fill="#39929E"/><rect x="88.5" y="15.5" width="11" height="11" rx=".5" fill="#EFEFEF" stroke="#C4C4C4"/><rect x="115.5" y="15.5" width="11" height="11" rx=".5" fill="#EFEFEF" stroke="#C4C4C4"/><rect x="101.5" y="15.5" width="11" height="11" rx=".5" fill="#EFEFEF" stroke="#8372E8"/><path d="M133.609 43.034l-5.636-6.04a1.235 1.235 0 00-.939-.393l-5.399.151 6.64 7.117 5.044-.142a.412.412 0 00.29-.693zm-6.536 6.098l-5.636-6.04a1.236 1.236 0 01-.326-.965l.524-5.375 6.64 7.117-.49 5.022a.412.412 0 01-.712.241z" fill="#8372E8"/><path d="M107.97 20.622l-.182.17.182-.17a1.012 1.012 0 00-1.431-.05h0a1.01 1.01 0 00-.05 1.431l24.577 26.341a1.013 1.013 0 001.432.05h0a1.012 1.012 0 00.049-1.431h0L107.97 20.622z" fill="#BFBFBF" stroke="#BFBFBF" stroke-width=".5"/></svg>
